X: 139
T: The Hive Bonnet
%R: jig
B: Chas & Sam Thompson "Twenty Four Country Dances for the Year 1778", London 1778, p.70 #1
F: http://www.vwml.org/browse/browse-collections-dance-tune-books/browse-thompsons1778#
Z: 2014 John Chambers <jc:trillian.mit.edu> (added dance description)
M: 6/8
L: 1/8
K: G
% - - - - - - - - - - - - - - - - - - - - - - - - - - - - -
D |\
G>AG dBB | (ce).e efg |\
d(e/d/c/B/) cAF | G>AG G2 :: d |\
g>ag fed | e>fe dcB |
c>dc BAG | FAA A2D |\
G>AG dBB | (ce).e efg |\
d(e/d/c/B/) cAF | G>AG G2 :|
% - - - - - - - - - - Dance description - - - - - - - - - -
%%begintext align
%% Cast off two Cu: .|. up again :|.
%% lead down two Cu: up again and
%% cast off .|: hands 6 round :|:
%%endtext

%%sep 1 1 500
%%sep 1 1 500
